app/images/phone.svg

<svg width="24" height="24" viewBox="0 0 24 24" fill="none" xmlns="http://www.w3.org/2000/svg">
<path d="M20.9633 23.31C20.7133 23.31 20.4632 23.28 20.2332 23.24C15.4632 22.52 10.6332 20.01 6.98324 16.36C3.36324 12.74 0.973268 8.14999 0.0732681 3.08999C-0.0167319 2.57999 -0.076738 1.94001 0.223262 1.42001C0.403262 1.13001 0.653263 0.930021 0.943263 0.870021L4.55325 0.060023C5.31325 -0.099977 6.09326 0.429974 6.34326 1.25997C6.72326 2.52997 7.03327 3.54999 7.57327 4.64999C7.94327 5.40999 7.71325 6.30999 7.05325 6.70999L6.19326 7.20999C6.01326 7.30999 5.88326 7.49002 5.84326 7.68002C5.67326 8.37002 7.92324 11.29 9.98324 13.34C11.6932 15.05 14.7733 17.51 15.5133 17.33C15.7133 17.28 15.8833 17.15 15.9933 16.97L16.4933 16.11C16.8933 15.45 17.7932 15.22 18.5532 15.59C19.2533 15.93 20.4033 16.39 21.3233 16.75C22.5833 17.25 22.7133 17.3 22.8233 17.42C23.2033 17.8 23.3633 18.29 23.2633 18.76L22.4533 22.36C22.3933 22.65 22.2033 22.91 21.9033 23.09C21.6033 23.26 21.2833 23.31 20.9633 23.31ZM1.08325 1.93002C0.973247 2.11002 0.963249 2.43001 1.05325 2.92001C1.92325 7.78001 4.21326 12.19 7.69326 15.66C11.1933 19.16 15.8233 21.57 20.3833 22.26C20.7633 22.32 21.1733 22.36 21.3833 22.23C21.4433 22.2 21.4633 22.16 21.4633 22.15L22.2733 18.55C22.3033 18.42 22.2432 18.26 22.1032 18.13C22.0732 18.13 21.4733 17.89 20.9433 17.68C20.0033 17.31 18.8432 16.85 18.1032 16.49C17.8232 16.35 17.4732 16.41 17.3432 16.62L16.8432 17.48C16.6032 17.89 16.2033 18.19 15.7433 18.3C13.9733 18.75 9.30326 14.09 9.25326 14.05C9.05326 13.85 4.40327 9.18002 4.85327 7.43002C4.96327 6.98002 5.26324 6.57999 5.67324 6.33999L6.52325 5.83999C6.73325 5.70999 6.79325 5.36998 6.65325 5.07998C6.08325 3.90998 5.76324 2.85002 5.39324 1.62002C5.27324 1.23002 4.98325 0.980004 4.74325 1.04C4.74325 1.04 4.55327 1.08 1.13327 1.85C1.14327 1.84 1.11325 1.87002 1.08325 1.93002Z" fill="#C08E71"/>
<path d="M18.7332 11.12C18.4532 11.12 18.2332 10.9 18.2332 10.62C18.2332 6.97 15.2633 4.00995 11.6233 4.00995C11.3433 4.00995 11.1233 3.78995 11.1233 3.50995C11.1233 3.22995 11.3433 3.00995 11.6233 3.00995C15.8233 3.00995 19.2332 6.42 19.2332 10.62C19.2332 10.9 19.0132 11.12 18.7332 11.12Z" fill="#C08E71"/>
<path d="M21.7433 11.12C21.4633 11.12 21.2433 10.9 21.2433 10.62C21.2433 5.31 16.9233 1 11.6233 1C11.3433 1 11.1233 0.78 11.1233 0.5C11.1233 0.22 11.3433 0 11.6233 0C17.4833 0 22.2433 4.77 22.2433 10.62C22.2433 10.9 22.0233 11.12 21.7433 11.12Z" fill="#C08E71"/>
</svg>

<svg width="24" height="24" fill="none" xmlns="http://www.w3.org/2000/svg"><path d="M20.963 23.31c-.25 0-.5-.03-.73-.07-4.77-.72-9.6-3.23-13.25-6.88A24.821 24.821 0 0 1 .073 3.09c-.09-.51-.15-1.15.15-1.67.18-.29.43-.49.72-.55l3.61-.81c.76-.16 1.54.37 1.79 1.2.38 1.27.69 2.29 1.23 3.39.37.76.14 1.66-.52 2.06l-.86.5a.72.72 0 0 0-.35.47c-.17.69 2.08 3.61 4.14 5.66 1.71 1.71 4.79 4.17 5.53 3.99.2-.05.37-.18.48-.36l.5-.86c.4-.66 1.3-.89 2.06-.52.7.34 1.85.8 2.77 1.16 1.26.5 1.39.55 1.5.67.38.38.54.87.44 1.34l-.81 3.6c-.06.29-.25.55-.55.73-.3.17-.62.22-.94.22ZM1.083 1.93c-.11.18-.12.5-.03.99.87 4.86 3.16 9.27 6.64 12.74 3.5 3.5 8.13 5.91 12.69 6.6.38.06.79.1 1-.03.06-.03.08-.07.08-.08l.81-3.6c.03-.13-.03-.29-.17-.42-.03 0-.63-.24-1.16-.45-.94-.37-2.1-.83-2.84-1.19-.28-.14-.63-.08-.76.13l-.5.86c-.24.41-.64.71-1.1.82-1.77.45-6.44-4.21-6.49-4.25-.2-.2-4.85-4.87-4.4-6.62.11-.45.41-.85.82-1.09l.85-.5c.21-.13.27-.47.13-.76-.57-1.17-.89-2.23-1.26-3.46-.12-.39-.41-.64-.65-.58 0 0-.19.04-3.61.81.01-.01-.02.02-.05.08ZM18.733 11.12c-.28 0-.5-.22-.5-.5 0-3.65-2.97-6.61-6.61-6.61-.28 0-.5-.22-.5-.5s.22-.5.5-.5c4.2 0 7.61 3.41 7.61 7.61 0 .28-.22.5-.5.5Z" fill="#C08E71"/><path d="M21.743 11.12c-.28 0-.5-.22-.5-.5 0-5.31-4.32-9.62-9.62-9.62-.28 0-.5-.22-.5-.5s.22-.5.5-.5c5.86 0 10.62 4.77 10.62 10.62 0 .28-.22.5-.5.5Z" fill="#C08E71"/></svg>
